src/images/achievement_mono.svg

<svg xmlns="http://www.w3.org/2000/svg" version="1.1" viewBox="-22 0 512 512.001"><g id="surface1"><path d="M 316.953125 130.789062 C 315.589844 126.59375 311.710938 123.773438 307.300781 123.773438 L 259.277344 123.773438 L 244.4375 78.105469 C 243.078125 73.910156 239.199219 71.089844 234.789062 71.089844 C 230.375 71.089844 226.496094 73.910156 225.136719 78.105469 L 210.296875 123.773438 L 162.273438 123.773438 C 157.863281 123.773438 153.984375 126.59375 152.621094 130.789062 C 151.257812 134.980469 152.738281 139.542969 156.308594 142.136719 L 195.160156 170.363281 L 180.320312 216.035156 C 178.957031 220.230469 180.4375 224.789062 184.007812 227.382812 C 187.574219 229.972656 192.367188 229.976562 195.9375 227.382812 L 234.785156 199.152344 L 273.636719 227.382812 C 275.421875 228.675781 277.511719 229.324219 279.601562 229.324219 C 281.691406 229.324219 283.785156 228.675781 285.566406 227.382812 C 289.136719 224.789062 290.621094 220.230469 289.257812 216.03125 L 274.417969 170.363281 L 313.269531 142.136719 C 316.835938 139.542969 318.316406 134.980469 316.953125 130.789062 Z M 262.742188 160.300781 C 259.179688 162.894531 257.699219 167.453125 259.058594 171.644531 L 270.375 206.472656 L 240.75 184.949219 C 237.183594 182.355469 232.386719 182.355469 228.820312 184.949219 L 199.195312 206.472656 L 210.511719 171.644531 C 211.871094 167.453125 210.390625 162.894531 206.824219 160.296875 L 177.199219 138.777344 L 213.816406 138.777344 C 218.226562 138.777344 222.105469 135.957031 223.46875 131.761719 L 234.785156 96.9375 L 246.101562 131.761719 C 247.464844 135.957031 251.34375 138.773438 255.753906 138.773438 L 292.371094 138.773438 Z M 262.742188 160.300781 " style="stroke: none; fill-rule: nonzero; fill-opacity: 1; fill: rgb(128, 128, 128);" fill="rgb(0%,0%,0%)"></path><path d="M 464.128906 73.640625 C 459.210938 67.324219 451.800781 63.699219 443.796875 63.699219 L 369.433594 63.699219 L 369.429688 51.476562 L 372.695312 51.476562 C 381.679688 51.476562 388.992188 44.164062 388.992188 35.179688 L 388.992188 16.296875 C 388.992188 7.3125 381.679688 0 372.695312 0 L 96.878906 0 C 87.890625 0 80.582031 7.3125 80.582031 16.296875 L 80.582031 35.183594 C 80.582031 44.167969 87.890625 51.476562 96.878906 51.476562 L 100.140625 51.476562 L 100.140625 63.699219 L 25.777344 63.699219 C 17.769531 63.699219 10.359375 67.324219 5.441406 73.640625 C 0.527344 79.960938 -1.164062 88.03125 0.800781 95.792969 L 14.542969 150.019531 C 23.636719 185.90625 43.65625 217.179688 72.433594 240.457031 C 100.363281 263.046875 133.921875 275.996094 169.652344 278.019531 C 181.597656 289.902344 193.414062 299.398438 203.59375 306.648438 C 201.402344 328.128906 193.515625 365.070312 166.390625 400.117188 L 132.082031 400.117188 C 123.691406 400.117188 116.867188 406.941406 116.867188 415.332031 L 116.867188 496.785156 C 116.867188 505.175781 123.691406 512 132.082031 512 L 337.488281 512 C 345.878906 512 352.703125 505.175781 352.703125 496.785156 L 352.703125 415.328125 C 352.703125 406.941406 345.878906 400.117188 337.488281 400.117188 L 303.179688 400.117188 C 276.054688 365.066406 268.167969 328.125 265.976562 306.648438 C 276.15625 299.398438 287.972656 289.902344 299.917969 278.019531 C 335.648438 275.996094 369.207031 263.046875 397.136719 240.453125 C 425.914062 217.179688 445.933594 185.90625 455.027344 150.019531 L 468.769531 95.792969 C 470.734375 88.03125 469.046875 79.960938 464.128906 73.640625 Z M 369.4375 113.976562 L 369.4375 109.449219 L 418.109375 109.449219 L 410.679688 138.78125 C 401.457031 175.164062 376.269531 205.179688 342.925781 220.828125 C 360.527344 188.144531 369.4375 152.324219 369.4375 113.976562 Z M 126.644531 220.828125 C 93.304688 205.179688 68.113281 175.167969 58.894531 138.78125 L 51.460938 109.449219 L 100.132812 109.449219 L 100.132812 113.976562 C 100.132812 152.324219 109.042969 188.144531 126.644531 220.828125 Z M 81.867188 228.792969 C 55.628906 207.570312 37.378906 179.054688 29.085938 146.335938 L 15.34375 92.109375 C 14.519531 88.867188 15.226562 85.492188 17.28125 82.851562 C 19.335938 80.214844 22.429688 78.699219 25.777344 78.699219 L 100.136719 78.699219 L 100.136719 94.449219 L 41.824219 94.449219 C 39.511719 94.449219 37.324219 95.519531 35.902344 97.34375 C 34.484375 99.171875 33.984375 101.550781 34.550781 103.792969 L 44.351562 142.464844 C 56.378906 189.910156 92.640625 227.675781 139.332031 241.671875 C 140.175781 242.90625 141.03125 244.136719 141.902344 245.363281 C 145.898438 250.984375 150.035156 256.28125 154.234375 261.269531 C 127.769531 256.972656 103.046875 245.921875 81.867188 228.792969 Z M 337.488281 415.117188 C 337.605469 415.117188 337.703125 415.210938 337.703125 415.328125 L 337.703125 496.785156 C 337.703125 496.902344 337.605469 497 337.488281 497 L 132.082031 497 C 131.964844 497 131.871094 496.902344 131.871094 496.785156 L 131.871094 415.328125 C 131.871094 415.210938 131.964844 415.117188 132.082031 415.117188 Z M 284.628906 400.117188 L 184.941406 400.117188 C 206.429688 368.71875 214.601562 336.96875 217.644531 315.320312 C 223.113281 317.703125 228.945312 318.917969 234.785156 318.917969 C 240.625 318.917969 246.457031 317.699219 251.925781 315.320312 C 254.96875 336.96875 263.144531 368.71875 284.628906 400.117188 Z M 291.359375 265.355469 C 291.269531 265.445312 291.175781 265.535156 291.085938 265.632812 C 276.355469 280.585938 261.6875 291.683594 250.273438 299.242188 C 240.867188 305.46875 228.707031 305.46875 219.300781 299.242188 C 207.882812 291.683594 193.214844 280.585938 178.484375 265.632812 C 178.398438 265.535156 178.304688 265.449219 178.210938 265.355469 C 170.015625 257.007812 161.800781 247.472656 154.128906 236.675781 C 128.253906 200.265625 115.132812 158.984375 115.132812 113.976562 L 115.140625 51.476562 L 134.746094 51.476562 C 138.890625 51.476562 142.246094 48.117188 142.246094 43.976562 C 142.246094 39.835938 138.890625 36.476562 134.746094 36.476562 L 96.878906 36.476562 C 96.164062 36.476562 95.582031 35.894531 95.582031 35.179688 L 95.582031 16.296875 C 95.582031 15.582031 96.164062 15 96.878906 15 L 372.695312 15 C 373.410156 15 373.992188 15.582031 373.992188 16.296875 L 373.992188 35.183594 C 373.992188 35.894531 373.410156 36.476562 372.695312 36.476562 L 169.65625 36.476562 C 165.515625 36.476562 162.15625 39.835938 162.15625 43.976562 C 162.15625 48.121094 165.515625 51.476562 169.65625 51.476562 L 354.429688 51.476562 L 354.441406 113.976562 C 354.441406 158.988281 341.320312 200.269531 315.445312 236.675781 C 307.769531 247.472656 299.558594 257.007812 291.359375 265.355469 Z M 454.230469 92.109375 L 440.488281 146.335938 C 432.195312 179.054688 413.941406 207.570312 387.703125 228.792969 C 366.527344 245.921875 341.800781 256.972656 315.339844 261.269531 C 319.539062 256.28125 323.671875 250.988281 327.667969 245.363281 C 328.539062 244.140625 329.398438 242.910156 330.238281 241.675781 C 376.933594 227.675781 413.195312 189.910156 425.21875 142.464844 L 435.019531 103.792969 C 435.585938 101.550781 435.089844 99.171875 433.667969 97.34375 C 432.246094 95.519531 430.0625 94.449219 427.75 94.449219 L 369.4375 94.449219 L 369.433594 78.699219 L 443.796875 78.699219 C 447.140625 78.699219 450.234375 80.214844 452.292969 82.851562 C 454.34375 85.492188 455.050781 88.867188 454.230469 92.109375 Z M 454.230469 92.109375 " style="stroke: none; fill-rule: nonzero; fill-opacity: 1; fill: rgb(128, 128, 128);" fill="rgb(0%,0%,0%)"></path><path d="M 151.265625 443.921875 L 151.265625 468.195312 C 151.265625 473.382812 155.488281 477.601562 160.675781 477.601562 L 308.898438 477.601562 C 314.085938 477.601562 318.304688 473.382812 318.304688 468.195312 L 318.304688 443.921875 C 318.304688 438.734375 314.085938 434.515625 308.898438 434.515625 L 293.03125 434.515625 C 288.886719 434.515625 285.53125 437.871094 285.53125 442.015625 C 285.53125 446.15625 288.886719 449.515625 293.03125 449.515625 L 303.304688 449.515625 L 303.304688 462.601562 L 166.265625 462.601562 L 166.265625 449.515625 L 258.121094 449.515625 C 262.265625 449.515625 265.621094 446.15625 265.621094 442.015625 C 265.621094 437.871094 262.265625 434.515625 258.121094 434.515625 L 160.675781 434.515625 C 155.488281 434.515625 151.265625 438.734375 151.265625 443.921875 Z M 151.265625 443.921875 " style="stroke: none; fill-rule: nonzero; fill-opacity: 1; fill: rgb(128, 128, 128);" fill="rgb(0%,0%,0%)"></path></g></svg>

<svg xmlns="http://www.w3.org/2000/svg" viewBox="-22 0 512 512.001">
  <g fill="gray">
    <path d="M316.953 130.79a10.126 10.126 0 0 0-9.652-7.017h-48.024l-14.84-45.668a10.117 10.117 0 0 0-9.648-7.015c-4.414 0-8.293 2.82-9.652 7.015l-14.84 45.668h-48.024c-4.41 0-8.289 2.82-9.652 7.016a10.123 10.123 0 0 0 3.688 11.348l38.851 28.226-14.84 45.672a10.121 10.121 0 0 0 3.688 11.348 10.124 10.124 0 0 0 11.93 0l38.847-28.23 38.852 28.23a10.155 10.155 0 0 0 5.965 1.941c2.09 0 4.183-.648 5.964-1.941a10.127 10.127 0 0 0 3.692-11.352l-14.84-45.668 38.852-28.226a10.127 10.127 0 0 0 3.683-11.348Zm-54.21 29.51a10.133 10.133 0 0 0-3.684 11.345l11.316 34.828-29.625-21.524a10.118 10.118 0 0 0-11.93 0l-29.625 21.524 11.317-34.828a10.137 10.137 0 0 0-3.688-11.348l-29.625-21.52h36.617c4.41 0 8.29-2.82 9.653-7.015l11.316-34.825 11.317 34.825a10.122 10.122 0 0 0 9.652 7.011h36.617Zm0 0"/>
    <path d="M464.129 73.64c-4.918-6.316-12.328-9.94-20.332-9.94h-74.363l-.004-12.223h3.265c8.985 0 16.297-7.313 16.297-16.297V16.297C388.992 7.312 381.68 0 372.695 0H96.88c-8.99 0-16.298 7.313-16.298 16.297v18.887c0 8.984 7.309 16.293 16.297 16.293h3.262v12.222H25.777c-8.007 0-15.418 3.625-20.336 9.942C.527 79.96-1.164 88.03.801 95.793l13.742 54.227c9.094 35.886 29.113 67.16 57.89 90.437 27.93 22.59 61.489 35.54 97.22 37.563a272.495 272.495 0 0 0 33.94 28.628c-2.19 21.48-10.077 58.422-37.202 93.47h-34.309c-8.39 0-15.215 6.823-15.215 15.214v81.453c0 8.39 6.824 15.215 15.215 15.215h205.406c8.39 0 15.215-6.824 15.215-15.215v-81.457c0-8.387-6.824-15.21-15.215-15.21H303.18c-27.125-35.052-35.012-71.993-37.203-93.47a272.495 272.495 0 0 0 33.941-28.628c35.73-2.024 69.289-14.973 97.219-37.567 28.777-23.273 48.797-54.547 57.89-90.433l13.743-54.227c1.964-7.762.277-15.832-4.641-22.152Zm-94.692 40.337v-4.528h48.672l-7.43 29.332c-9.222 36.383-34.41 66.399-67.753 82.047 17.601-32.683 26.512-68.504 26.512-106.851ZM126.645 220.828c-33.34-15.648-58.532-45.66-67.75-82.047L51.46 109.45h48.672v4.528c0 38.347 8.91 74.168 26.512 106.851Zm-44.778 7.965C55.63 207.57 37.38 179.055 29.086 146.336L15.344 92.109a10.69 10.69 0 0 1 1.937-9.257 10.701 10.701 0 0 1 8.496-4.153h74.36v15.75H41.824c-2.312 0-4.5 1.07-5.922 2.895a7.52 7.52 0 0 0-1.351 6.449l9.8 38.672c12.028 47.445 48.29 85.21 94.981 99.207a250.68 250.68 0 0 0 2.57 3.691 246.339 246.339 0 0 0 12.332 15.907c-26.464-4.297-51.187-15.348-72.367-32.477Zm255.621 186.324c.117 0 .215.094.215.211v81.457a.217.217 0 0 1-.215.215H132.082a.213.213 0 0 1-.21-.215v-81.457a.21.21 0 0 1 .21-.21Zm-52.86-15h-99.687c21.489-31.398 29.66-63.148 32.704-84.797a42.908 42.908 0 0 0 17.14 3.598c5.84 0 11.672-1.219 17.14-3.598 3.044 21.649 11.22 53.399 32.704 84.797Zm6.731-134.762c-.09.09-.183.18-.273.278-14.73 14.953-29.399 26.05-40.813 33.61a28.013 28.013 0 0 1-30.972 0 256.602 256.602 0 0 1-40.817-33.61c-.086-.098-.18-.184-.273-.278-8.195-8.347-16.41-17.882-24.082-28.68-25.875-36.41-38.996-77.69-38.996-122.698l.008-62.5h19.605a7.5 7.5 0 0 0 7.5-7.5 7.5 7.5 0 0 0-7.5-7.5H96.88a1.299 1.299 0 0 1-1.297-1.297V16.297c0-.715.582-1.297 1.297-1.297h275.816c.715 0 1.297.582 1.297 1.297v18.887c0 .71-.582 1.293-1.297 1.293h-203.04a7.5 7.5 0 1 0 0 15H354.43l.011 62.5c0 45.011-13.12 86.293-38.996 122.699-7.675 10.797-15.886 20.332-24.086 28.68ZM454.23 92.11l-13.742 54.227c-8.293 32.719-26.547 61.234-52.785 82.457-21.176 17.129-45.902 28.18-72.363 32.477a245.236 245.236 0 0 0 14.898-19.594c46.696-14 82.957-51.766 94.98-99.211l9.802-38.672a7.507 7.507 0 0 0-1.352-6.45 7.507 7.507 0 0 0-5.918-2.894h-58.313l-.003-15.75h74.363c3.344 0 6.437 1.516 8.496 4.153a10.716 10.716 0 0 1 1.937 9.257Zm0 0"/>
    <path d="M151.266 443.922v24.273c0 5.188 4.222 9.407 9.41 9.407h148.222c5.188 0 9.407-4.22 9.407-9.407v-24.273c0-5.188-4.22-9.406-9.407-9.406h-15.867a7.497 7.497 0 0 0-7.5 7.5 7.5 7.5 0 0 0 7.5 7.5h10.274v13.086h-137.04v-13.086h91.856a7.5 7.5 0 0 0 7.5-7.5c0-4.145-3.355-7.5-7.5-7.5h-97.445c-5.188 0-9.41 4.218-9.41 9.406Zm0 0"/>
  </g>
</svg>
